X: 1
T: Roddy McCorley $1(R-130)
I: Roddy McCorley	R-130	G	march	Set 48
M: C
R: march
K: G
GA| "G"B2 AB D2GA| B3A G2 DD| "C"E2 G2 "D7"G2 A2| "G"(G4 G2) Bc|
    "G"d2 d2 d2 Bd| "C"e2 e2 "G"d2 BA| "Em"G2 E2 "Am"c2 B2| "D7"(A4 A2) Bc|
    "G"d2 d2 "G7"d2 Bd| "C"e2 e2 "G"d2 BA| "Em"G2 E2 "Am"c2 B2| "D7"(A4 A2) GA|
    "G"B2 AB D2GA| "B7"B3A "Em"G2 DD| "C"E2 G2 "D7"G2 A2| "G"(G4 G2) |]

%%vskip 6pt

